icons/papirus/32x32/apps/redshift.svg

<?xml version="1.0" encoding="UTF-8" standalone="no"?>
<!-- Created with Inkscape (http://www.inkscape.org/) -->

<svg
   xmlns:dc="http://purl.org/dc/elements/1.1/"
   xmlns:cc="http://creativecommons.org/ns#"
   xmlns:rdf="http://www.w3.org/1999/02/22-rdf-syntax-ns#"
   xmlns:svg="http://www.w3.org/2000/svg"
   xmlns="http://www.w3.org/2000/svg"
   xmlns:sodipodi="http://sodipodi.sourceforge.net/DTD/sodipodi-0.dtd"
   xmlns:inkscape="http://www.inkscape.org/namespaces/inkscape"
   id="svg2817"
   height="32"
   width="32"
   version="1.0"
   inkscape:version="0.91 r"
   sodipodi:docname="redshift.svg">
  <sodipodi:namedview
     pagecolor="#ffffff"
     bordercolor="#666666"
     borderopacity="1"
     objecttolerance="10"
     gridtolerance="10"
     guidetolerance="10"
     inkscape:pageopacity="0"
     inkscape:pageshadow="2"
     inkscape:window-width="1600"
     inkscape:window-height="842"
     id="namedview15"
     showgrid="false"
     inkscape:zoom="1"
     inkscape:cx="10.315039"
     inkscape:cy="13.218427"
     inkscape:window-x="-4"
     inkscape:window-y="32"
     inkscape:window-maximized="1"
     inkscape:current-layer="svg2817">
    <inkscape:grid
       type="xygrid"
       id="grid4149" />
  </sodipodi:namedview>
  <metadata
     id="metadata57">
    <rdf:RDF>
      <cc:Work
         rdf:about="">
        <dc:format>image/svg+xml</dc:format>
        <dc:type
           rdf:resource="http://purl.org/dc/dcmitype/StillImage" />
        <dc:title></dc:title>
      </cc:Work>
    </rdf:RDF>
  </metadata>
  <defs
     id="defs2819" />
  <path
     inkscape:connector-curvature="0"
     style="color:#000000;fill:#e74c3c"
     d="M 15.50005,3 C 10.805657,3 7.0001004,6.813299 7.0001004,11.517241 6.9826894,14.067942 9.2351451,16.297299 10.269312,18.724139 10.730218,19.80573 11.576996,22 11.576996,22 l 7.846108,0 c 0,0 0.846778,-2.19427 1.307684,-3.275861 C 21.764955,16.297299 23.954858,14.039672 24,11.517241 24,6.813299 20.194443,3 15.50005,3 Z"
     id="path4161" />
  <path
     style="opacity:0.8;fill:none;fill-rule:evenodd;stroke:#ffffff;stroke-width:0.5;stroke-linecap:butt;stroke-linejoin:miter;stroke-miterlimit:4;stroke-dasharray:none;stroke-opacity:1"
     d="m 12.68671,21.977831 c 0,0 0.311098,-3.494481 0,-5.2 -0.332253,-1.821496 -1.961527,-5.2 -1.961527,-5.2"
     id="path4183"
     inkscape:connector-curvature="0"
     sodipodi:nodetypes="csc" />
  <path
     sodipodi:nodetypes="csc"
     inkscape:connector-curvature="0"
     id="path4185"
     d="m 18.389005,21.977831 c 0,0 -0.311097,-3.494481 0,-5.2 0.332252,-1.821496 1.961527,-5.2 1.961527,-5.2"
     style="opacity:0.8;fill:none;fill-rule:evenodd;stroke:#ffffff;stroke-width:0.5;stroke-linecap:butt;stroke-linejoin:miter;stroke-miterlimit:4;stroke-dasharray:none;stroke-opacity:1" />
  <path
     style="opacity:1;fill:#434343;fill-opacity:1;stroke:none;stroke-width:3;stroke-linecap:round;stroke-linejoin:round;stroke-miterlimit:4;stroke-dasharray:none;stroke-opacity:1"
     d="M 19.423104,22 18.11542,27.7 C 17.954332,28.40216 17.532192,29 16.807734,29 l -2.615368,0 c -0.724458,0 -1.155891,-0.595785 -1.307685,-1.3 L 11.576996,22 Z"
     id="rect4143"
     inkscape:connector-curvature="0"
     sodipodi:nodetypes="csssscc" />
  <path
     style="opacity:0.8;fill:none;stroke:#ffffff;stroke-width:0.50018388;stroke-linecap:round;stroke-linejoin:round;stroke-miterlimit:4;stroke-dasharray:none"
     inkscape:connector-curvature="0"
     d="m 12.251122,11.989179 0.812141,-2.7391848 0.54143,4.5000878 0.541426,-4.1087761 0.229297,3.6137651 0.582847,-3.026797 0.270712,2.152215 0.541426,-2.7391831 0.270717,3.5218091 0.812139,-3.9131208 0.812141,4.3044318 0.270717,-3.130496 0.812139,1.565249"
     id="path5061" />
  <path
     style="opacity:0.2;fill:#ffffff;fill-opacity:1;stroke:none;stroke-width:1;stroke-linecap:round;stroke-linejoin:round;stroke-miterlimit:4;stroke-dasharray:none;stroke-opacity:1"
     d="M 11.833984 23 L 12.056641 24 L 18.943359 24 L 19.166016 23 L 11.833984 23 z M 12.28125 25 L 12.503906 26 L 18.496094 26 L 18.71875 25 L 12.28125 25 z M 12.728516 27 L 12.884766 27.699219 C 12.907508 27.804728 12.949033 27.900998 12.984375 28 L 18.013672 28 C 18.049597 27.900689 18.091587 27.805006 18.115234 27.699219 L 18.271484 27 L 12.728516 27 z "
     id="rect4270" />
  <path
     style="color:#000000;fill:#ffffff;fill-opacity:1;opacity:0.2"
     d="M 15.5 3 C 10.805607 3 7 6.8136361 7 11.517578 C 6.9988711 11.682965 7.0083844 11.846939 7.0253906 12.009766 C 7.2888465 7.5434673 10.976633 4 15.5 4 C 19.956248 4 23.605447 7.4381542 23.964844 11.810547 C 23.973017 11.712382 23.998229 11.616532 24 11.517578 C 24 6.8136361 20.194393 3 15.5 3 z "
     id="path4280" />
  <path
     style="color:#000000;fill:#000000;fill-opacity:1;opacity:0.3"
     d="M 23.964844 10.810547 C 23.764679 13.214705 21.724066 15.392973 20.730469 17.724609 C 20.269563 18.8062 19.423828 21 19.423828 21 L 11.576172 21 C 11.576172 21 10.730437 18.8062 10.269531 17.724609 C 9.3024196 15.455125 7.2706642 13.35815 7.0253906 11.009766 C 7.0154295 11.178634 7 11.346204 7 11.517578 C 6.982589 14.068279 9.2353644 16.297769 10.269531 18.724609 C 10.730437 19.8062 11.576172 22 11.576172 22 L 19.423828 22 C 19.423828 22 20.269563 19.8062 20.730469 18.724609 C 21.764636 16.297769 23.954858 14.040009 24 11.517578 C 24 11.278949 23.98405 11.044211 23.964844 10.810547 z "
     id="path4285" />
  <path
     style="opacity:0.3;fill:#000000;fill-opacity:1;stroke:none;stroke-width:3;stroke-linecap:round;stroke-linejoin:round;stroke-miterlimit:4;stroke-dasharray:none;stroke-opacity:1"
     d="M 11.576172 22 L 12.884766 27.699219 C 13.03656 28.403434 13.466948 29 14.191406 29 L 16.808594 29 C 17.533052 29 17.954146 28.401379 18.115234 27.699219 L 19.423828 22 L 19.193359 22 L 18.115234 26.699219 C 17.954146 27.401379 17.533052 28 16.808594 28 L 14.191406 28 C 13.466948 28 13.03656 27.403434 12.884766 26.699219 L 11.806641 22 L 11.576172 22 z "
     id="path4290" />
</svg>

<?xml version="1.0" encoding="UTF-8" standalone="no"?>
<!-- Created with Inkscape (http://www.inkscape.org/) -->
<svg id="svg2817" xmlns:rdf="http://www.w3.org/1999/02/22-rdf-syntax-ns#" xmlns="http://www.w3.org/2000/svg" height="32" width="32" version="1.0" xmlns:cc="http://creativecommons.org/ns#" xmlns:dc="http://purl.org/dc/elements/1.1/">
 <metadata id="metadata57">
  <rdf:RDF>
   <cc:Work rdf:about="">
    <dc:format>image/svg+xml</dc:format>
    <dc:type rdf:resource="http://purl.org/dc/dcmitype/StillImage"/>
    <dc:title/>
   </cc:Work>
  </rdf:RDF>
 </metadata>
 <path id="path4161" style="color:#000000" fill="#e74c3c" d="m15.5 3c-4.694 0-8.4999 3.8133-8.4999 8.517-0.0174 2.551 2.235 4.78 3.2689 7.207 0.461 1.082 1.308 3.276 1.308 3.276h7.8461s0.84678-2.1943 1.3077-3.2759c1.034-2.427 3.224-4.684 3.269-7.207 0-4.7037-3.806-8.517-8.5-8.517z"/>
 <path id="path4183" opacity=".8" d="m12.687 21.978s0.3111-3.4945 0-5.2c-0.33225-1.8215-1.9615-5.2-1.9615-5.2" stroke="#fff" stroke-width=".5" fill="none"/>
 <path id="path4185" opacity=".8" d="m18.389 21.978s-0.3111-3.4945 0-5.2c0.33225-1.8215 1.9615-5.2 1.9615-5.2" stroke="#fff" stroke-width=".5" fill="none"/>
 <path id="rect4143" d="m19.423 22-1.308 5.7c-0.161 0.702-0.583 1.3-1.307 1.3h-2.6154c-0.72446 0-1.1559-0.59578-1.3077-1.3l-1.308-5.7z" fill="#434343"/>
 <path id="path5061" opacity=".8" stroke-linejoin="round" d="m12.251 11.989 0.81214-2.7392 0.54143 4.5001 0.54143-4.1088 0.2293 3.6138 0.58285-3.0268 0.27071 2.1522 0.54143-2.7392 0.27072 3.5218 0.81214-3.9131 0.81214 4.3044 0.27072-3.1305 0.81214 1.5652" stroke="#fff" stroke-linecap="round" stroke-width=".50018" fill="none"/>
 <path id="rect4270" opacity=".2" d="m11.834 23l0.223 1h6.886l0.223-1h-7.332zm0.447 2l0.223 1h5.992l0.223-1h-6.438zm0.448 2l0.156 0.699c0.023 0.106 0.064 0.202 0.099 0.301h5.03c0.036-0.099 0.078-0.195 0.101-0.301l0.156-0.699h-5.542z" fill="#fff"/>
 <path id="path4280" opacity=".2" style="color:#000000" d="m15.5 3c-4.694 0-8.5 3.8136-8.5 8.518-0.0011 0.165 0.0084 0.329 0.0254 0.492 0.2634-4.4665 3.9516-8.01 8.4746-8.01 4.456 0 8.105 3.4382 8.465 7.811 0.008-0.099 0.033-0.194 0.035-0.293 0-4.7044-3.806-8.518-8.5-8.518z" fill="#fff"/>
 <path id="path4285" opacity=".3" style="color:#000000" d="m23.965 10.811c-0.2 2.404-2.241 4.582-3.235 6.914-0.46 1.081-1.306 3.275-1.306 3.275h-7.848s-0.846-2.194-1.306-3.275c-0.9676-2.27-2.9993-4.367-3.2446-6.715-0.01 0.169-0.0254 0.336-0.0254 0.508-0.0174 2.55 2.2354 4.78 3.27 7.207 0.46 1.081 1.306 3.275 1.306 3.275h7.848s0.846-2.194 1.306-3.275c1.035-2.427 3.225-4.685 3.27-7.207 0-0.239-0.016-0.474-0.035-0.707z"/>
 <path id="path4290" opacity=".3" d="m11.576 22l1.309 5.699c0.152 0.704 0.582 1.301 1.306 1.301h2.618c0.724 0 1.145-0.599 1.306-1.301l1.309-5.699h-0.231l-1.078 4.699c-0.161 0.702-0.582 1.301-1.306 1.301h-2.618c-0.724 0-1.154-0.597-1.306-1.301l-1.078-4.699h-0.231z"/>
</svg>
